dist/svgs/unicons/line/archive-alt.svg

<svg xmlns="http://www.w3.org/2000/svg" viewBox="0 0 24 24"><path d="M10 13h4a1 1 0 000-2h-4a1 1 0 000 2zm9-10H5a3 3 0 00-1 5.82V18a3 3 0 003 3h10a3 3 0 003-3V8.82A3 3 0 0019 3zm-1 15a1 1 0 01-1 1H7a1 1 0 01-1-1V9h12zm1-11H5a1 1 0 010-2h14a1 1 0 010 2z"/></svg>

<svg xmlns="http://www.w3.org/2000/svg" viewBox="0 0 24 24"><path d="M10,13h4a1,1,0,0,0,0-2H10a1,1,0,0,0,0,2ZM19,3H5A3,3,0,0,0,4,8.82V18a3,3,0,0,0,3,3H17a3,3,0,0,0,3-3V8.82A3,3,0,0,0,19,3ZM18,18a1,1,0,0,1-1,1H7a1,1,0,0,1-1-1V9H18ZM19,7H5A1,1,0,0,1,5,5H19a1,1,0,0,1,0,2Z"/></svg>
